!!!ONR: No. 16
!! From Harold Courlander, "Haiti Singing"
!! Chapel Hill: University of North Carolina Press, 1939
!! Copyright University of North Carolina Press
!!!ENC: D. Huron
**kern
*clefG2
*k[f#c#g#d#]
*M2/4
=1-
4r
8f#
8f#
=2||
6a
6g#
[6f#
=3
4f#]
8a
8cc#
=4
[2g#
=5
4g#]
8cc#
8cc#
=6
6ee
6dd#
[6cc#
=7
8cc#]
8b
8g#
8g#
=8
8e
8g#
[4f#
=9
2f#]
=10
16a
16a
16a
[16a
8a]
8a
=11
16a
16a
16a
16a
8f#
8a
=12
4.g#
8b
=13
8b
8b
8.dd#
16ee
=14
16cc#
16cc#
16a
16a
8f#
8a
=15
4cc#
8f#
8f#
=16||
6a
6g#
[6f#
=17
4f#
8a
8cc#
=18
[2g#
=19
4g#]
8cc#
8cc#
=20
6ee
6dd#
[6cc#
=21
8cc#]
8b
8g#
8g#
=22
8e
8g#
[4f#
=23
2f#]
==
*-
